_includes/icons/color-exe.svg

<svg fill="#666" height="50" viewBox="0 0 48 48" width="50" xmlns="http://www.w3.org/2000/svg"><path d="m40 45h-32v-42h22l10 10z" fill="#ff80ab"/><path d="m38.5 14h-9.5v-9.5z" fill="#fce4ec"/><g fill="#e91e63"><path d="m18.941406 28.691406h-3.132812v2.640625h3.707031v1.667969h-5.714844v-9.953125h5.699219v1.675781h-3.691406v2.351563h3.132812z"/><path d="m23.785156 26.464844 1.34375-3.417969h2.300782l-2.335938 4.9375 2.390625 5.015625h-2.332031l-1.367188-3.480469-1.359375 3.480469h-2.328125l2.390625-5.019531-2.34375-4.933594h2.304688z"/><path d="m33.644531 28.691406h-3.128906v2.640625h3.703125v1.667969h-5.714844v-9.953125h5.699219v1.675781h-3.6875v2.351563h3.128906z"/></g></svg>

<svg xmlns="http://www.w3.org/2000/svg" viewBox="0 0 48 48" width="50" height="50" fill="#666"><path d="M 40 45 L 8 45 L 8 3 L 30 3 L 40 13 Z" fill="#ff80ab"/><path d="M 38.5 14 L 29 14 L 29 4.5 Z" fill="#fce4ec"/><path d="M 18.941406 28.691406 L 15.808594 28.691406 L 15.808594 31.332031 L 19.515625 31.332031 L 19.515625 33 L 13.800781 33 L 13.800781 23.046875 L 19.5 23.046875 L 19.5 24.722656 L 15.808594 24.722656 L 15.808594 27.074219 L 18.941406 27.074219 Z" fill="#e91e63"/><path d="M 23.785156 26.464844 L 25.128906 23.046875 L 27.429688 23.046875 L 25.09375 27.984375 L 27.484375 33 L 25.152344 33 L 23.785156 29.519531 L 22.425781 33 L 20.097656 33 L 22.488281 27.980469 L 20.144531 23.046875 L 22.449219 23.046875 Z" fill="#e91e63"/><path d="M 33.644531 28.691406 L 30.515625 28.691406 L 30.515625 31.332031 L 34.21875 31.332031 L 34.21875 33 L 28.503906 33 L 28.503906 23.046875 L 34.203125 23.046875 L 34.203125 24.722656 L 30.515625 24.722656 L 30.515625 27.074219 L 33.644531 27.074219 Z" fill="#e91e63"/></svg>
